packages/icons/src/gitops-suspended.svg

<svg fill="none" viewBox="0 0 12 12" xmlns="http://www.w3.org/2000/svg"><path clip-rule="evenodd" d="m5.17969 2.61133c0-.41422-.33579-.75-.75-.75-.41422 0-.75.33578-.75.75v7.13992c0 .41425.33578.75005.75.75005.41421 0 .75-.3358.75-.75005zm3.14172 0c0-.41422-.33579-.75-.75-.75s-.75.33578-.75.75v7.13992c0 .41425.33579.75005.75.75005s.75-.3358.75-.75005z" fill="#ff7020" fill-rule="evenodd"/></svg>

<svg viewBox="0 0 12 12" fill="none" xmlns="http://www.w3.org/2000/svg">
<path fill-rule="evenodd" clip-rule="evenodd" d="M5.17969 2.61133C5.17969 2.19711 4.8439 1.86133 4.42969 1.86133C4.01547 1.86133 3.67969 2.19711 3.67969 2.61133V9.75125C3.67969 10.1655 4.01547 10.5013 4.42969 10.5013C4.8439 10.5013 5.17969 10.1655 5.17969 9.75125V2.61133ZM8.32141 2.61133C8.32141 2.19711 7.98562 1.86133 7.57141 1.86133C7.1572 1.86133 6.82141 2.19711 6.82141 2.61133V9.75125C6.82141 10.1655 7.1572 10.5013 7.57141 10.5013C7.98562 10.5013 8.32141 10.1655 8.32141 9.75125V2.61133Z" fill="#FF7020"/>
</svg>
